static/img/kroki/372f450ad037386a8e719cf4c4d5b94d.svg

<?xml version="1.0" encoding="us-ascii" standalone="no"?><svg xmlns="http://www.w3.org/2000/svg" xmlns:xlink="http://www.w3.org/1999/xlink" contentStyleType="text/css" height="213px" preserveAspectRatio="none" style="width:169px;height:213px;" version="1.1" viewBox="0 0 169 213" width="169px" zoomAndPan="magnify"><defs/><g><!--class aws_resource--><g id="elem_aws_resource"><rect codeLine="23" fill="#3D176E" height="39.7891" id="aws_resource" rx="2.5" ry="2.5" style="stroke:#000D19;stroke-width:0.5;" width="155" x="7" y="167.79"/><ellipse cx="22" cy="187.6845" fill="#ADD1B2" rx="11" ry="11" style="stroke:#181818;stroke-width:1.0;"/><path d="M24.9688,193.3252 Q24.3906,193.622 23.75,193.7627 Q23.1094,193.9189 22.4063,193.9189 Q19.9063,193.9189 18.5781,192.2783 Q17.2656,190.622 17.2656,187.497 Q17.2656,184.372 18.5781,182.7158 Q19.9063,181.0595 22.4063,181.0595 Q23.1094,181.0595 23.75,181.2158 Q24.4063,181.372 24.9688,181.6689 L24.9688,184.3877 Q24.3438,183.8095 23.75,183.5439 Q23.1563,183.2627 22.5313,183.2627 Q21.1875,183.2627 20.5,184.3408 Q19.8125,185.4033 19.8125,187.497 Q19.8125,189.5908 20.5,190.6689 Q21.1875,191.7314 22.5313,191.7314 Q23.1563,191.7314 23.75,191.4658 Q24.3438,191.1845 24.9688,190.6064 L24.9688,193.3252 Z " fill="#000000"/><text fill="#D9B8FF" font-family="Helvetica" font-size="17" lengthAdjust="spacing" textLength="113" x="41" y="193.5698">aws_resource</text></g><!--class resource--><g id="elem_resource"><rect codeLine="26" fill="#3D176E" height="39.7891" id="resource" rx="2.5" ry="2.5" style="stroke:#000D19;stroke-width:0.5;" width="113" x="28" y="7"/><ellipse cx="43" cy="26.8945" fill="#ADD1B2" rx="11" ry="11" style="stroke:#181818;stroke-width:1.0;"/><path d="M45.9688,32.5352 Q45.3906,32.832 44.75,32.9727 Q44.1094,33.1289 43.4063,33.1289 Q40.9063,33.1289 39.5781,31.4883 Q38.2656,29.832 38.2656,26.707 Q38.2656,23.582 39.5781,21.9258 Q40.9063,20.2695 43.4063,20.2695 Q44.1094,20.2695 44.75,20.4258 Q45.4063,20.582 45.9688,20.8789 L45.9688,23.5977 Q45.3438,23.0195 44.75,22.7539 Q44.1563,22.4727 43.5313,22.4727 Q42.1875,22.4727 41.5,23.5508 Q40.8125,24.6133 40.8125,26.707 Q40.8125,28.8008 41.5,29.8789 Q42.1875,30.9414 43.5313,30.9414 Q44.1563,30.9414 44.75,30.6758 Q45.3438,30.3945 45.9688,29.8164 L45.9688,32.5352 Z " fill="#000000"/><text fill="#D9B8FF" font-family="Helvetica" font-size="17" lengthAdjust="spacing" textLength="71" x="62" y="32.7798">resource</text></g><!--reverse link resource to aws_resource--><g id="link_resource_aws_resource"><path codeLine="29" d="M84.5,65.05 C84.5,95.57 84.5,136.9 84.5,167.46 " fill="none" id="resource-backto-aws_resource" style="stroke:#FFAF37;stroke-width:2.0;"/><polygon fill="none" points="84.5,47.05,78.5,65.05,90.5,65.05,84.5,47.05" style="stroke:#FFAF37;stroke-width:2.0;"/></g><!--SRC=[XP1FJuD04CNlV8fDUYO16wKaNYg9qKjZh7SpiBDb0-oIcKLI_tntnTPc2xOzxdk_dNblIYrHODEwhMYmoP4uu4gR5WWQiIIoVMPhIsAc5AXvCZRlhN4NWHKqA1wmVaEd2nWJBwKkAeFCuigpxg2eDcGx8tVZ7O7X7mkDywYi1kQbSwJppg4NHgRvGganEHuwcyiukS49PaaYxP4eYcISZf6BgyxsFX1h_OuYze-siWudCIShVgcpAGV22paf-kUVpFW4Kcgp4TUUzhpBH0RfI5-N86q_q0fgzjUmGqBhjYrcarQOBgHA_eKVJy51CPnEGC-lX6mxAb1y1C7NNZ_M3g_Rpp0CZpu5tm00]--></g></svg>

<svg xmlns="http://www.w3.org/2000/svg" width="169" height="213" viewBox="0 0 169 213"><rect width="155" height="39.789" x="7" y="167.79" fill="#3D176E" rx="2.5" ry="2.5" style="stroke:#000d19;stroke-width:.5"/><circle cx="22" cy="187.685" r="11" fill="#ADD1B2" style="stroke:#181818;stroke-width:1"/><path d="M24.969 193.325q-.578.297-1.219.438-.64.156-1.344.156-2.5 0-3.828-1.64-1.312-1.657-1.312-4.782t1.312-4.781q1.328-1.656 3.828-1.656.703 0 1.344.156.656.156 1.219.453v2.719q-.625-.578-1.219-.844-.594-.281-1.219-.281-1.343 0-2.031 1.078-.687 1.062-.687 3.156t.687 3.172q.688 1.062 2.031 1.062.625 0 1.219-.265.594-.281 1.219-.86z"/><text x="41" y="193.57" fill="#D9B8FF" font-family="Helvetica" font-size="17" textLength="113">aws_resource</text><rect width="113" height="39.789" x="28" y="7" fill="#3D176E" rx="2.5" ry="2.5" style="stroke:#000d19;stroke-width:.5"/><circle cx="43" cy="26.895" r="11" fill="#ADD1B2" style="stroke:#181818;stroke-width:1"/><path d="M45.969 32.535q-.578.297-1.219.438-.64.156-1.344.156-2.5 0-3.828-1.64-1.312-1.657-1.312-4.782t1.312-4.781q1.328-1.656 3.828-1.656.703 0 1.344.156.656.156 1.219.453v2.719q-.625-.578-1.219-.844-.594-.281-1.219-.281-1.343 0-2.031 1.078-.687 1.062-.687 3.156t.687 3.172q.688 1.062 2.031 1.062.625 0 1.219-.265.594-.281 1.219-.86z"/><text x="62" y="32.78" fill="#D9B8FF" font-family="Helvetica" font-size="17" textLength="71">resource</text><path fill="none" d="M84.5 65.05v102.41m0-120.41-6 18h12z" style="stroke:#ffaf37;stroke-width:2"/></svg>
